app/dist/common/images/coda-octopus.svg

<svg fill="none" height="18" viewBox="0 0 18 18" width="18" xmlns="http://www.w3.org/2000/svg" xmlns:xlink="http://www.w3.org/1999/xlink"><linearGradient id="a" gradientUnits="userSpaceOnUse" x1="5.92128" x2="10.4768" y1="5.63024" y2="12.7245"><stop offset="0" stop-color="#2186a2"/><stop offset="1" stop-color="#09405b"/></linearGradient><path d="m0 0h18v18h-18z" fill="#f0f3fa"/><g clip-rule="evenodd" fill-rule="evenodd"><path d="m4.71743 13.2518c-.09896-.075-.36727-.18-.64879 0-.3519.225-.25293.7499.07697.7499s2.44126-.3 4.32169-2.1746c-.06598.2035-.09017.6106.3409.6106.53883 0 1.7815-.8142 2.1333-1.4141l.077.1822c-.2419.2749-.7258.9705-.7258 1.5532 0 .7285.4729.8356.7258.8356s1.3856-.4928 1.3856-1.7675c-.0183-.1607-.1803-.5464-.6818-.8035-.022-.507.0088-1.61539.3079-1.77822.4106.03571 1.4252.10713 2.1993.10713.9677 0 1.7705-.31066 1.7705-.53562 0-.22497-1.0667-.87842-1.8364-1.18908-.7698-.31066-1.6055-.93198-1.6055-1.31763 0-.38564.4728-.56775.7147-.56775.1224 0 .2532.12604.381.24925.125.1204.2471.2381.3558.2328.0291-.00141.0559-.00208.0805-.00269.1612-.00401.2274-.00566.2274-.20084 0-.22496-.2419-.61061-.9567-.61061s-1.9134.2571-1.9134.89984c0 .64275 1.6275 1.48903 1.8254 1.58544.198.09641 1.1327.66417 1.0447.79272s-1.9244.01071-2.3533-.52491c-.1063-.08213-.3387-.30423-.4178-.53562-.099-.28923-.121-.3428-.3629-.57847-.1936-.18854-1.0264-.89984-1.4186-1.23193.022-.1214-.00879-.40921-.3079-.58918s-.6598-.15354-.80276-.11783c-.3079-.06785-.9831-.20354-1.22063-.20354-.2969 0-1.9464.44992-1.9464 1.64971.01099.20354.16935.68345.71478.97483-.04765.30352-.06598.97697.24193 1.24264-.57916.05356-1.87163.22281-2.40827.47134-.07597.04136-.21978.08215-.1872-.08557.03257-.16772.24623-.44007.34899-.55529.05816.05651.23615.16952.48277.16952.23245 0 .42681-.20592.61873-.40924.0626-.06632.12495-.13237.18827-.19091.25743-.23798.25743-.77627-.17881-1.00858-.43624-.23232-.93064-.03967-1.45995.64028-.42345.54395-.72707 1.05391-.82595 1.2409-.04072.09632-.05468.33884.21521.53829.33736.24931.59328.32864 1.00044.32864.21524 0 .71491-.13301 1.18284-.25756.41726-.11107.80926-.21541.95184-.21274.30246.00567.60492.30031.5642.3853-.01603.03347-.05837.00281-.11859-.04078-.09273-.06713-.22785-.16494-.37452-.10654-.24193.09633-.58295.31731-.37937.5043.12722.1168.29986.1186.44413.1201.08659.0009.16296.0017.21314.0272.13378.068.13378.2663-.04072.306-.05001.0114-.16597.0953-.32047.2072-.38456.2786-1.00792.7301-1.44776.6654-.61655-.0907-.58747-.238-.37226-.374.1013-.064.1794-.0439.25371-.0248.08358.0215.16236.0418.26397-.0602.01849-.0185.03715-.0369.05545-.0549.17171-.1689.31282-.3077.00271-.3077-.34317 0-.98666.1756-1.0808.5779s.03964.697.50496.7083c.46533.0113 1.49486-.1473 1.97181-.408.38157-.2085 1.12454-.5326 1.44833-.6686l-.00674.0084c-.66761.8292-2.2204 2.7578-3.48732 2.7578-.18283 0 .09098-.2758.25074-.4137zm3.17004-5.70811c.22421-.08023.70695-.28884.84421-.4814l.21277.7689-1.79138.98286-.08922-.23402c.11897-.03343.39808-.12703.56281-.23401.2059-.13372.43925-.52151.26081-.80233zm-3.58967.64855c.13028-.17161.42511-.53489.56225-.61512.17141-.10029.25369.08024.22626.23402-.02742.15378-.29483.47471-.43197.51482-.1097.0321-.2834-.07577-.35654-.13372zm2.50685-.52272c-.11983 0-.09842.10293-.07274.1544.02424.08903.09243.28627.17117.36306.06961.06788.11782.05436.20365.03029.03554-.00996.07753-.02174.13016-.03029.15992-.02599.21482-.22707.25814-.38572l.00002-.00009c.00536-.01963.01054-.03862.01573-.05654.04707-.16275-.07703-.16692-.1669-.14188s-.38944.06677-.53923.06677zm1.96065 3.81868c.36985-.3314 1.13871-1.0335 1.2553-1.1913.1458-.1973.2511-.2762.3807-.2525s.162.9152-.46976 1.4438c-.63171.5286-.84228.6864-1.00426.6075s-.25917-.3708-.16198-.6075zm2.3814.8265c.1383-.0232.3238-.2963.3993-.43.4826.4707-.3993.9878-.578.9588-.143-.0233-.1192-.3274-.0894-.4765.0318-.0077.1299-.029.2681-.0523z" fill="url(#a)"/><path d="m10.6059 6.50899-1.48278-3.50731-4.45645 10.33332h5.77823c-.0629-.0631-.0709-.2479-.1315-.3333h-5.1289l3.94002-9.31823 1.10918 2.56371zm1.3387 6.49271c-.0886.0728-.2771.2655-.3871.3333h2.1092l-1.8519-3.81539-.0671.41466 1.3825 3.06743z" fill="#40b7ea"/></g></svg>

<!-- by TradingView --><svg width="18" height="18" viewBox="0 0 18 18" fill="none" xmlns="http://www.w3.org/2000/svg">
<rect width="18" height="18" fill="#F0F3FA"/>
<path fill-rule="evenodd" clip-rule="evenodd" d="M4.71743 13.2518C4.61847 13.1768 4.35016 13.0718 4.06864 13.2518C3.71674 13.4768 3.81571 14.0017 4.14561 14.0017C4.47551 14.0017 6.58687 13.7017 8.4673 11.8271C8.40132 12.0306 8.37713 12.4377 8.8082 12.4377C9.34703 12.4377 10.5897 11.6235 10.9415 11.0236L11.0185 11.2058C10.7766 11.4807 10.2927 12.1763 10.2927 12.759C10.2927 13.4875 10.7656 13.5946 11.0185 13.5946C11.2714 13.5946 12.4041 13.1018 12.4041 11.8271C12.3858 11.6664 12.2238 11.2807 11.7223 11.0236C11.7003 10.5166 11.7311 9.40821 12.0302 9.24538C12.4408 9.28109 13.4554 9.35251 14.2295 9.35251C15.1972 9.35251 16 9.04185 16 8.81689C16 8.59192 14.9333 7.93847 14.1636 7.62781C13.3938 7.31715 12.5581 6.69583 12.5581 6.31018C12.5581 5.92454 13.0309 5.74243 13.2728 5.74243C13.3952 5.74243 13.526 5.86847 13.6538 5.99168C13.7788 6.11208 13.9009 6.22978 14.0096 6.22448C14.0387 6.22307 14.0655 6.2224 14.0901 6.22179C14.2513 6.21778 14.3175 6.21613 14.3175 6.02095C14.3175 5.79599 14.0756 5.41034 13.3608 5.41034C12.646 5.41034 11.4474 5.66744 11.4474 6.31018C11.4474 6.95293 13.0749 7.79921 13.2728 7.89562C13.4708 7.99203 14.4055 8.55979 14.3175 8.68834C14.2295 8.81689 12.3931 8.69905 11.9642 8.16343C11.8579 8.0813 11.6255 7.8592 11.5464 7.62781C11.4474 7.33858 11.4254 7.28501 11.1835 7.04934C10.9899 6.8608 10.1571 6.1495 9.7649 5.81741C9.7869 5.69601 9.75611 5.4082 9.457 5.22823C9.15789 5.04826 8.7972 5.07469 8.65424 5.1104C8.34634 5.04255 7.67114 4.90686 7.43361 4.90686C7.13671 4.90686 5.48721 5.35678 5.48721 6.55657C5.4982 6.76011 5.65656 7.24002 6.20199 7.5314C6.15434 7.83492 6.13601 8.50837 6.44392 8.77404C5.86476 8.8276 4.57229 8.99685 4.03565 9.24538C3.95968 9.28674 3.81587 9.32753 3.84845 9.15981C3.88102 8.99209 4.09468 8.71974 4.19744 8.60452C4.2556 8.66103 4.43359 8.77404 4.68021 8.77404C4.91266 8.77404 5.10702 8.56812 5.29894 8.3648C5.36154 8.29848 5.42389 8.23243 5.48721 8.17389C5.74464 7.93591 5.74464 7.39762 5.3084 7.16531C4.87216 6.93299 4.37776 7.12564 3.84845 7.80559C3.425 8.34954 3.12138 8.8595 3.0225 9.04649C2.98178 9.14281 2.96782 9.38533 3.23771 9.58478C3.57507 9.83409 3.83099 9.91342 4.23815 9.91342C4.45339 9.91342 4.95306 9.78041 5.42099 9.65586C5.83825 9.54479 6.23025 9.44045 6.37283 9.44312C6.67529 9.44879 6.97775 9.74343 6.93703 9.82842C6.921 9.86189 6.87866 9.83123 6.81844 9.78764C6.72571 9.72051 6.59059 9.6227 6.44392 9.6811C6.20199 9.77743 5.86097 9.99841 6.06455 10.1854C6.19177 10.3022 6.36441 10.304 6.50868 10.3055C6.59527 10.3064 6.67164 10.3072 6.72182 10.3327C6.8556 10.4007 6.8556 10.599 6.6811 10.6387C6.63109 10.6501 6.51513 10.734 6.36063 10.8459C5.97607 11.1245 5.35271 11.576 4.91287 11.5113C4.29632 11.4206 4.3254 11.2733 4.54061 11.1373C4.64191 11.0733 4.72001 11.0934 4.79432 11.1125C4.8779 11.134 4.95668 11.1543 5.05829 11.0523C5.07678 11.0338 5.09544 11.0154 5.11374 10.9974C5.28545 10.8285 5.42656 10.6897 5.11645 10.6897C4.77328 10.6897 4.12979 10.8653 4.03565 11.2676C3.94151 11.6699 4.07529 11.9646 4.54061 11.9759C5.00594 11.9872 6.03547 11.8286 6.51242 11.5679C6.89399 11.3594 7.63696 11.0353 7.96075 10.8993L7.95401 10.9077C7.2864 11.7369 5.73361 13.6655 4.46669 13.6655C4.28386 13.6655 4.55767 13.3897 4.71743 13.2518ZM7.88747 7.54369C8.11168 7.46346 8.59442 7.25485 8.73168 7.06229L8.94445 7.83119L7.15307 8.81405L7.06385 8.58003C7.18282 8.5466 7.46193 8.453 7.62666 8.34602C7.83256 8.2123 8.06591 7.82451 7.88747 7.54369ZM4.2978 8.19224C4.42808 8.02063 4.72291 7.65735 4.86005 7.57712C5.03146 7.47683 5.11374 7.65736 5.08631 7.81114C5.05889 7.96492 4.79148 8.28585 4.65434 8.32596C4.54464 8.35806 4.37094 8.25019 4.2978 8.19224ZM6.80465 7.66952C6.68482 7.66952 6.70623 7.77245 6.73191 7.82392C6.75615 7.91295 6.82434 8.11019 6.90308 8.18698C6.97269 8.25486 7.0209 8.24134 7.10673 8.21727C7.14227 8.20731 7.18426 8.19553 7.23689 8.18698C7.39681 8.16099 7.45171 7.95991 7.49503 7.80126L7.49505 7.80117C7.50041 7.78154 7.50559 7.76255 7.51078 7.74463C7.55785 7.58188 7.43375 7.57771 7.34388 7.60275C7.25401 7.62779 6.95444 7.66952 6.80465 7.66952ZM8.7653 11.4882C9.13515 11.1568 9.90401 10.4547 10.0206 10.2969C10.1664 10.0996 10.2717 10.0207 10.4013 10.0444C10.5309 10.0681 10.5633 10.9596 9.93154 11.4882C9.29983 12.0168 9.08926 12.1746 8.92728 12.0957C8.7653 12.0168 8.66811 11.7249 8.7653 11.4882ZM11.1467 12.3147C11.285 12.2915 11.4705 12.0184 11.546 11.8847C12.0286 12.3554 11.1467 12.8725 10.968 12.8435C10.825 12.8202 10.8488 12.5161 10.8786 12.367C10.9104 12.3593 11.0085 12.338 11.1467 12.3147Z" fill="url(#paint0_linear_5723_201607)"/>
<path fill-rule="evenodd" clip-rule="evenodd" d="M10.6059 6.50899L9.12312 3.00168L4.66667 13.335H10.4449C10.382 13.2719 10.374 13.0871 10.3134 13.0017H5.1845L9.12452 3.68347L10.2337 6.24718L10.6059 6.50899ZM11.9446 13.0017C11.856 13.0745 11.6675 13.2672 11.5575 13.335H13.6667L11.8148 9.51961L11.7477 9.93427L13.1302 13.0017H11.9446Z" fill="#40B7EA"/>
<defs>
<linearGradient id="paint0_linear_5723_201607" x1="5.92128" y1="5.63024" x2="10.4768" y2="12.7245" gradientUnits="userSpaceOnUse">
<stop stop-color="#2186A2"/>
<stop offset="1" stop-color="#09405B"/>
</linearGradient>
</defs>
</svg>
